svg/300/outlined/rule-fill.svg

<svg xmlns="http://www.w3.org/2000/svg" width="48" height="48" viewBox="0 -960 960 960"><path d="m570.23-180.001-31.614-31.615 109.077-109.077L538.616-429.77l31.614-31.614 109.077 109.077 109.077-109.077 31.615 31.614-109.077 109.077 109.077 109.077-31.615 31.615-109.077-109.077L570.23-180.001Zm82.231-356.692L524.693-664.461l31.614-31.614 96.154 95.153 176.308-176.692 31.614 32.615-207.922 208.306Zm-552.46 231.692v-45.384H440v45.384H100.001Zm0-304.614v-45.384H440v45.384H100.001Z"/></svg>

<svg xmlns="http://www.w3.org/2000/svg" width="48" height="48" viewBox="0 -960 960 960"><path d="m570.23-180-31.61-31.62 109.07-109.07-109.07-109.08 31.61-31.61 109.08 109.07 109.07-109.07L820-429.77 710.92-320.69 820-211.62 788.38-180 679.31-289.08 570.23-180Zm82.23-356.69L524.69-664.46l31.62-31.62 96.15 95.16 176.31-176.69L860.38-745 652.46-536.69ZM100-305v-45.38h340V-305H100Zm0-304.62V-655h340v45.38H100Z"/></svg>
